X:1
T:Benedicta lilium
T:Gabrijel Plavec 
T:Flosculus Vernalis (1621)
T:ed. Jeffrey Quick
T:Benedicta lilium
C:Gabrijel Plavec
C:
%%score 1 2 3 { ( 4 6 ) | 5 }
L:1/8
Q:1/4=480
M:3/1
K:F
V:1 treble-8 nm="Tenor 1" snm="T.1"
V:2 treble-8 nm="Tenor 2" snm="T2"
V:3 bass nm="Bass" snm="B."
V:4 treble nm="Bassus generalis" snm="B.C."
V:6 treble 
V:5 bass 
V:1
 c16 c8 | c16 c8 | A8 B8 G8 | A16 z8 | d16 c8 | d16 c8 | c16 B8 | c8 G8 A8 | B16 A8 | B8 A16 | %10
w: Be- ue-|di- cta|li- * I1-|um,|be- ne-|di- cta|li- li-|um, quae es|ca- *|sti- ta-|
 B8 c8 d8 | c24 | A8 G16 |[M:2/2][Q:1/4=160]"^= " A4 c6 G2 A2 F2 | G4 F4 z2 c4 A2 | %15
w: tis, quae es|ca-|sti- ta-|tis: ve- ni, ve- ni,|ve- ni, ve- ni,|
 d2 B2 A4 G2 d4 A2 | B2 B2 A4 =B8 | z2 c4 G2 G4 A4 | =B4 c8 B4 | c8 z4 c4 | A4 d8 B4 | A8 G8 |: %22
w: ve- ni, ve- ni, ve- ni,|ve- ni, ve- ni,|ve- ni in au-|xi- * li-|um no-|bis tu- is|na- tis.|
[M:3/1][Q:1/4=480]"^ =" A16 c8 | c16 d8 | d16 c8 |[M:2/2][Q:1/4=160]"^= " d4 A4 B4 c4- | %26
w: Vin- ce|tu- um|fi- li-|um pre- ce pi|
 c2 A2 d8 ^c4 | d4 D6 D2 E4 | F4 B8 A4 | B2 BB B2 B2 A2 G2 ^F2 dd | c2 B2 A4 G2 B2 c4 | %31
w: * e- ta- *|tis, pre- ce pi-|e- ta- *|tis, ut post hoc ex- si- li- um sl- mus|cum be- a- tis, ut post|
 d2 B2 c2 d2 G2 GG ^F2 F2 | G4 A2 dd c2 B4 A2 | B8 z4 z2 cc | B2 A2 G4 A2 A2 A4 | %35
w: hoc ex- si- li- um sl- mus cum be-|a- tis, si- mus cum be- a-|tis, si- mus|cum be- a- tis, ut post|
 G2 F2 E2 F2 G2 GG A2 A2 | B4 c2 gg f2 e2 d4 | c4 A4 B4 c2 A2 | B3 A G2 G2 A2 F2 G4 | %39
w: hoc ex- si- li- um si- mus cum be-|a- tis, si- mus cum be- a-|tis, ut post hoc ex-|si- * * li- um, ut post|
 A2 F2 G2 A2 D4 z2 AA | G2 F4 E2 F4 c4- | c2 c2 B6 A2 G4 |"^I." A8 :|2 A4 z2 AA G2 F2 E4 || %44
w: hoc ex- si- li- um si- mus|cum be- a- tis, si-|* –mus cum be- a-|tis.|tis, si- mus cum be- a-|
 F8 F6 E2 | D4 D4 d8- | d4 c2 B2 c8- | c16 |] %48
w: tis, si- mus|cum be- a-|* –- * tis.||
V:2
 A16 G8 | A16 G8 | F16 E8 | F16 z8 | F16 F8 | F16 F8 | E8 F8 D8 | E8 E8 F8 | D12 E4 F8 | G8 ^F16 | %10
w: Be- ne-|di- cta|li- li-|um,|be- ne-|di- cta|li- * li-|um, quae es|ca- * *|sti- ta-|
 G8 G8 B8 | A16 G8 | F16 E8 |[M:2/2] F8 z4 z2 c2- | c2 G2 A2 F2 E4 F4 | z2 d4 A2 B4 A4- | %16
w: tis, quae es|ca- sti-|ta- *|tis ve-|* ni, ve- ni, ve- ni,|ve- ni, ve- ni,|
 A2 G4 ^F2 G2 G4 D2 | E8 E4 F4- | F2 E2 E2 DC D6 D2 | C4 G4 E4 A4- | A2 G2 F6 D2 G4- | G4 ^F4 G8 |: %22
w: * ve- * ni, ve- ni|in au- xi-|* * –- * * * li-|um no- bis tu-|* –- * is na-|* * tis.|
[M:3/1] F16 G8 | A16 B8 | B16 G8 |[M:2/2] ^F4 F8 G4 | A4 F4 E8 | D4 F4 G4 A4- | A4 d4 c8 | %29
w: Vin- ce|tu- um|fi- li-|um pre- ce|pi- e- ta-|tis, pre- ce pi-|* e- ta-|
 d2 dd d2 d2 c2 B2 A2 BB | A2 G2 ^F4 B4 A2 GG | ^F2 G2 A4 B4 A2 dd | c3 B A2 B2 G4 c4 | %33
w: tis, ut post hoc ex- si- li- um si- mus|cum be- a- * –tis, ut post|hoc ex- si- li- um si- mus|cum _ _ be- a- *|
 B4 z2 dd c2 B2 A4 | G2 F4 E2 F6 A2 | B4 c2 A2 B2 c2 F2 ff | e2 d2 c3 B AB c4 =B2 | %37
w: tis, si- mus cum be- a-|–- * – tis, ut|post hoc ex- si- li- um si- mus|cum be- a- * –- * * –|
 c2 G2 z2 AA G2 F2 E2 F2 | DE F4 E2 F2 ff e2 d2 | ^c2 d4 c2 d4 z2 =cc | B2 A2 G4 A2 A4 A2 | %41
w: – tis, si- mus cum be- a- *|* –- * – tis, si- mus cum be-|a- * –- tis, si- mus|cum be- a- tis si- mus|
 G4 F4 E2 F4 E2 | F8 :|2 F4 z2 cc B2 A2 G3 A || B2 AG A2 B2 c8 | F12 B4- | B4 A2 G2 A8- | A16 |] %48
w: cum be- a- * *|tis.|tis, si- mus cum be- a- *|||* * – tis.||
V:3
 F,16 E,8 | F,16 C,8 | D,8 B,,8 C,8 | F,,16 z8 | B,,16 A,,8 | B,,16 F,,8 | C,8 F,,8 G,,8 | %7
w: Be- ne-|di- cta|li- * li-|um,|be- nc-|di- cta|li- * li-|
 C,8 C,8 F,,8 | B,,12 C,4 D,8 | G,,8 D,16 | G,,8 C,8 G,,8 | A,,12 B,,4 C,8 | F,,8 C,16 | %13
w: um, quae es|ca- * *|sti- ta-|tis, quae es|ca- * *|sti- ta-|
[M:2/2] F,,8 C,4 F,4 | E,4 F,4 C,4 F,,4 | z4 D,4 G,4 ^F,4 | G,4 D,4 G,,8 | C,6 C,2 C,4 A,,4 | %18
w: tis: ve- ni,|ve- ni, ve- ni,|ve- ni, ve-|ni, ve- ni,|ve- ni in au-|
 G,,12 G,,4 | C,4 C,8 A,,4 | D,6 C,2 B,,4 G,,4 | D,8 G,,8 |:[M:3/1] D,16 C,8 | F,16 D,8 | %24
w: xi- *|li–um no- bis|tu- * * is|na- tis.|Vin- ce|tu- um|
 G,16 _E,8 |[M:2/2] D,4 D,8 E,4 | F,4 D,4 A,,8 | D,4 B,,8 C,4 | D,4 B,,4 F,,8 | %29
w: fi- li-|um pre- ce|pi- e- ta-|tis, pre- ce|pi- e- ta-|
 B,,4 B,,4 C,4 D,2 B,,2 | C,4 D,4 G,,2 G,G, F,2 _E,2 | D,2 G,4 ^F,2 G,4 z2 D,2 | %32
w: tis, ut ptlsl hoc ex-|si- li- um si- mus cum be-|a- * * tis, ut|
 _E,4 F,2 D,2 E,4 F,4 | B,,4 z2 B,,2 C,4 D,2 A,,2 | B,,4 C,4 F,,4 z2 F,F, | %35
w: post hoc ex- si- li-|um, ut post hoc ex-|si- li- um si- mus|
 _E,2 D,2 C,2 F,4 =E,2 F,2 F,2 | G,4 A,2 E,2 F,4 G,4 | C,4 z2 F,F, _E,2 D,2 C,2 D,2 | %38
w: cum be- a- * –- tis, ut|post hoc ex- si- I1-|um si–mus * cum be- a- *|
 B,,4 C,4 F,,4 z4 | z4 z2 A,,2 B,,4 C,2 A,,2 | B,,4 C,4 F,,2 F,4 F,2 | _E,4 D,4 C,8 | F,,8 :|2 %43
w: –- * –tis,|ut post hoc ex-|si- li- um si- mus|cum be- a-|tis.|
 F,,8 B,,4 C,4 || D,8 A,,8 | B,,16 | F,,16- | F,,16 |] %48
w: tis, si- mus|cum be-|a––-|tis.||
V:4
 [FAc]16"^Instrument change" [CGc]8 |"^Instrument change" [FAc]16"^Instrument change" [EGc]8 | %2
"^Instrument change" [DFA]8"^Instrument change" [DFB]8 [CEG]8 | %3
"^Instrument change" [CFA]16"^Instrument change" z8 | %4
"^Instrument change" [FBd]16"^Instrument change" [Fc]8 | %5
"^Instrument change" [FBd]16"^Instrument change" [FAc]8 | %6
"^Instrument change" [EGc]8"^Instrument change" [FAc]8 [DFB]8 | %7
"^Instrument change" [CEG]8"^Instrument change" [CEG]8 [CFA]8 | %8
"^Instrument change" [DFB]16 [DFA]8"^Instrument change" | %9
"^Instrument change" [DGB]8"^Instrument change" [D^FA]16 | %10
"^Instrument change" [DGB]8"^Instrument change" [EGc]8 [DGB]8 | %11
"^Instrument change" [CEA]16 [CEG]8"^Instrument change" | %12
"^Instrument change" [CFA]8"^Instrument change" [CG]16 |[M:2/2]"^Instrument change" x16 | %14
"^Instrument change" [CG]4"^Instrument change" [CFA]4 [CEG]4 [CFA]4 | %15
"^Instrument change" [DB]4 [D^FA]4 [DGB]4 [DA]4"^Instrument change" | %16
"^Instrument change" [DB]4"^Instrument change" [DA]4 [DG=B]8 | %17
"^Instrument change" x16"^Instrument change" | %18
"^Instrument change" [DG=B]4 c8"^Instrument change" B4 | %19
"^Instrument change" [EGc]4"^Instrument change" [EGc]8 [EAc]4 | %20
"^Instrument change" [FAd]8 [FBd]4 [G-Bd]4"^Instrument change" | %21
"^Instrument change" [Ad]8"^Instrument change" [GBd]8 |: %22
[M:3/1]"^Instrument change" [DFA]16"^Instrument change" [EGc]8 | %23
"^Instrument change" [FAc]16"^Instrument change" [FAd]8 | %24
"^Instrument change" [GBd]16"^Instrument change" [Gc]8 | %25
[M:2/2]"^Instrument change" [^FAd]4"^Instrument change" A4 B4 [CGc]4 | %26
"^Instrument change" [FAc]4"^Instrument change" d8 ^c4 | %27
"^Instrument change" [Fd]4"^Instrument change" [FBd]8 [EAc]4 | %28
"^Instrument change" [DFA]4"^Instrument change" B8 A4 | %29
"^Instrument change" [DFB]4"^Instrument change" [DFB]4 [CA]2 [B,G]2 [A,^F]2 [B,D=F]2 | %30
"^Instrument change" A2 B2"^Instrument change" [D^FA]4 [DGB]4 c4 |"^Instrument change" x16 | %32
"^Instrument change" [Gc]4"^Instrument change" [FA]2 [FB]2 c2 B4 A2 | %33
"^Instrument change" [DFB]4"^Instrument change" [DFB]4 [EG]4 [DF]2 [CE]2 | %34
"^Instrument change" [B,D]2 [FA]2"^Instrument change" G4 [FA]4 [CFA]4 | %35
"^Instrument change" G2"^Instrument change" F2 E2 F2 G4 F2 F2 | %36
"^Instrument change" E2 D2"^Instrument change" C2 G2 F2 E2 D4 | %37
"^Instrument change" [CE]4"^Instrument change" [A,F]4 G2 F2 E2 F2 |"^Instrument change" x16 | %39
"^Instrument change" [^CE]2"^Instrument change" [DA]2 [B,G]2 [CE]2 [B,D]4 [G,E]2 [=CA]2 | %40
"^Instrument change" [B,DF]4"^Instrument change" [G,CE]4 [A,CF]8 | %41
"^Instrument change" [G,CG]4"^Instrument change" [B,F]4 E2 F4 E2 |"^Instrument change" [A,CF]8 :|2 %43
"^Instrument change" [A,CF]8 [B,DF]4 [CE]4 || %44
"^Instrument change" [A,DF]8"^Instrument change" [A,CF]8 |"^Instrument change" [B,DF]16- | %46
"^Instrument change" F16- |"^Instrument change" F16 |] %48
V:5
 F,16 E,8 | F,16 C,8 | D,8 B,,8 C,8 | F,,16 z8 | B,,16 A,,8 | B,,16 F,,8 | C,8 F,,8 G,,8 | %7
w: |||||||
 C,8 C,8 F,,8 | B,,12 C,4 D,8 | G,,8 D,16 | G,,8 C,8 G,,8 | A,,12 B,,4 C,8 | F,,8 C,16 | %13
w: ||* X||||
[M:2/2] F,,8 C,4 F,4 | E,4 F,4 C,4 F,,4 | B,,2 G,,2 D,4 G,4 ^F,4 | G,4 D,4 G,,8 | %17
w: ||* * X * *|* X X|
 C,6 C,2 C,4 A,,4 | G,,12 G,,4 | C,4 C,8 A,,4 | D,6 C,2 B,,4 G,,4 | D,8 G,,8 |:[M:3/1] D,16 C,8 | %23
w: |X *|||X *|* X|
 F,16 D,8 | G,16 _E,8 |[M:2/2] D,4 D,8 E,4 | F,4 D,4 A,,8 | D,4 B,,8 C,4 | D,4 B,,4 F,,8 | %29
w: ||X * *|* * X|||
 B,,4 B,,4 C,4 D,2 B,,2 | C,4 D,4 G,,2 G,2 F,2 _E,2 | D,2 G,4 ^F,2 G,4 D,4 | _E,4 F,2 D,2 E,4 F,4 | %33
w: |* X * * * *|||
 B,,4 B,,4 C,4 D,2 A,,2 | B,,4 C,4 F,,4 F,4 | _E,2 D,2 C,2 F,4 =E,2 F,2 F,2 | G,4 A,2 E,2 F,4 G,4 | %37
w: ||||
 C,4 F,4 _E,2 D,2 C,2 D,2 | B,,4 C,4 F,,2 F,2 G,4 | A,2 F,2 G,2 A,A,, B,,4 C,2 A,,2 | %40
w: ||* * * X * * * *|
 B,,4 C,4 F,,2 F,4 F,2 | _E,4 D,4 C,8 | F,,8 :|2 F,,8 B,,4 C,4 || D,8 A,,8 | B,,16 | F,,16- | %47
w: |||||||
 F,,16 |] %48
w: |
V:6
 x24 | x24 | x24 | x24 | x24 | x24 | x24 | x24 | x24 | x24 | x24 | x24 | x8 F8 E8 | %13
[M:2/2] [CFA]8"^Instrument change" [CEG]4 [CFA]4 | x16 | x16 | G6 ^F2 x8 | [EGc]8 [EGc]4 [CFc]4 | %18
 x4 [EG]4 [DG]8 | x16 | x16 | G4 ^F4 z8 |:[M:3/1] x24 | x24 | x24 |[M:2/2] x4 [D^F]8 x4 | %26
 x4 [DF]4 E8 | x16 | x4 [DF]4 [CF]8 | x16 | [CE]4 x8 [=FA]2 [_EG]2 | %31
 [D^Fd]2"^Instrument change" [GBd]2 [GAc]2 [DAd]2 [GBd]4 [FAd]4 | x8 [_EG]4 [CF]4 | x16 | %34
 x4 F2 E2 x8 | B,4 C2 A,2 B,2 C2 A,2 A,2 | B,4 C2 CB, A,B, C4 =B,2 | x8 B,4 C2 A,2 | %38
 [B,DF]4"^Instrument change" [G,CE]4 [A,CF]4 E2 D2 | x16 | x16 | x8 [G,C]8 | x8 :|2 x16 || x16 | %45
 x16 | [B,D]4 [A,C]2 [G,B,]2 [A,C]8- | [A,C]16 |] %48

